X: 10117
T: WINNIE'S JIG
C: Bob McQuillen 12 Dec 93
B: Bob's Note Book 10 #117
%R: jig
Z: 2020 John Chambers <jc:trillian.mit.edu>
M: 6/8
L: 1/8
K: D	% and Bm
A \
| FGA def | gfg ecA | dfa gab | afd ecA |\
| FGA def | gfg e2g | fga gec | edd d2 :|
|: e \
| fdB def | gfg efg | fdB dfd | Bed cBA |\
| fdB def | gfg e2g | fgf edc | dBB B2 :|
%%begintext align
%% Winnie Werth lives in
%% Antrim, NH, and she was a great favorite of mine when
%% she was one of my school girls. She's just as much a
%% favorite today, and she should have gotten this tune long ago.
%% I'm sorry it took so long, Winnie! Much love to you always
%% from MAC
%%endtext

%%sep 1 1 500

%%sep 1 1 500

